bell-off-outline.svg

<svg fill="currentColor" viewBox="0 0 24 24"><path d="M22.11 21.46 2.39 1.73 1.11 3l4.72 4.72A7 7 0 0 0 5 11v6l-2 2v1h15.11l2.73 2.73zM7 18v-7c0-.61.11-1.21.34-1.77L16.11 18zm3 3h4a2 2 0 0 1-2 2 2 2 0 0 1-2-2M8.29 5.09c.53-.34 1.11-.59 1.71-.8V4a2 2 0 0 1 2-2 2 2 0 0 1 2 2v.29c2.97.88 5 3.61 5 6.71v4.8l-2-2V11a5 5 0 0 0-5-5c-.78 0-1.55.2-2.24.56z"/></svg>

<svg  viewBox="0 0 24 24" fill="currentColor"><path  d="M22.11,21.46L2.39,1.73L1.11,3L5.83,7.72C5.29,8.73 5,9.86 5,11V17L3,19V20H18.11L20.84,22.73L22.11,21.46M7,18V11C7,10.39 7.11,9.79 7.34,9.23L16.11,18H7M10,21H14A2,2 0 0,1 12,23A2,2 0 0,1 10,21M8.29,5.09C8.82,4.75 9.4,4.5 10,4.29C10,4.19 10,4.1 10,4A2,2 0 0,1 12,2A2,2 0 0,1 14,4C14,4.1 14,4.19 14,4.29C16.97,5.17 19,7.9 19,11V15.8L17,13.8V11A5,5 0 0,0 12,6C11.22,6 10.45,6.2 9.76,6.56L8.29,5.09Z"/></svg>
